X:1
T:O Happy Day
T:O Happy Day
T:Anonymous, refrain by Edward Rimbault, 1854 
T:Public Domain Courtesy of the Cyber Hymnal™
C:Anonymous, refrain by Edward Rimbault, 1854
Z:Public Domain
Z:Courtesy of the Cyber Hymnal™
%%score ( 1 2 ) 3
L:1/8
M:3/2
K:F
V:1 treble 
V:2 treble 
V:3 bass 
V:1
 C2 [CF]2 [EG]2 | [FA]6 C2 [CF]2 [EG]2 | [FA]6 [FA]2 [FB]2 [FA]2 [EG]6 F2 [FA]2 [EG]2 | %3
 F6 C2 [CF]2 [EG]2 | [FA]6 C2 [CF]2 [EG]2 | [FA]6 [FA]2 [FB]2 [FA]2 | [EG]6 F2 [FA]2 [EG]2 | %7
 F6 z2 [FA]3 [FB] | [Fc]8 F3 [EG] | [FA]6 [FA]2 [FB]2 [FA]2 | [EG]6 F2 [FA]2 [EG]2 | %11
 F6 [Fc]2 [Fc]2 [Fc]2 | [Fc]6 [Fc]2 [Fd]2 [Fc]2 | [FA]6 [Fc]2 [Fc]2 [Fc]2 | %14
 [Fc]6 [Fc]2 [Fd]2 [Fc]2 | [FA]6 z2 [FA]3 [FB] | [Fc]8 F3 [EG] | [FA]6 [FA]2 [FB]2 [FA]2 | %18
 [EG]6 F2 [FA]2 [EG]2 | F8 |] %20
V:2
 C2 x4 | x12 | x24 | x12 | x12 | x12 | x12 | x12 | x12 | x12 | x12 | x12 | x12 | x12 | x12 | x12 | %16
 x12 | x12 | x12 | F8 |] %20
V:3
 [F,A,]2 [F,A,]2 [C,C]2 | [F,C]6 [F,A,]2 [F,A,]2 [C,C]2 | %2
 [F,C]6 [F,C]2 [F,D]2 [F,C]2 [C,B,]6 [D,A,]2 [C,C]2 [C,B,]2 | [F,A,]6 [C,C]2 [A,,C]2 [C,C]2 | %4
 [F,C]6 [C,C]2 [A,,C]2 [C,C]2 | [F,C]6 [F,C]2 [F,D]2 [F,C]2 | [C,B,]6 [D,A,]2 [C,C]2 [C,B,]2 | %7
 [F,A,]6 z2 [F,C]3 [G,C] | [A,C]8 [A,,C]3 [C,C] | [F,C]6 [F,C]2 [F,D]2 [F,C]2 | %10
 [C,B,]6 [D,A,]2 [C,C]2 [C,B,]2 | [F,A,]6 [F,A,]2 [F,A,]2 [F,A,]2 | %12
 [F,A,]6 [F,A,]2 [F,B,]2 [F,A,]2 | [F,C]6 [F,A,]2 [F,A,]2 [F,A,]2 | %14
 [F,A,]6 [F,A,]2 [F,B,]2 [F,A,]2 | [F,C]6 z2 [F,C]3 [G,C] | [A,C]8 [A,,C]3 [C,C] | %17
 [F,C]6 [F,C]2 [F,D]2 [F,C]2 | [C,B,]6 [D,A,]2 [C,C]2 [C,B,]2 | [F,A,]8 |] %20

